X:13
T:13 Salt Fish And Dumplings
C:Welch MS
I:abc2nwc
M:C
L:1/8
K:G
BA|G3G GABc|efge dBAG|c3e dBAG|F2A2A2AB|
c3d efge|dBAG F3A|GcAc BdAc|B2G2G2:|
g2|dBGB d3e|d2G2BcdB|cBcd efga|f2d2d2cB|
cBcd efgd|cBAG FAdB|BdfB ABcd|B2G2G2:|


